build/category/CityOutline.svg

<svg xmlns="http://www.w3.org/2000/svg" fill="none" viewBox="0 0 24 24" focusable="false"><path d="M0 0H24V24H0z"/><path fill="#74767B" fill-rule="evenodd" d="M12.8604 2.5853L12.8604 3.67017L14.2617 3.67017C14.3584 3.67017 14.4531 3.68005 14.5449 3.6998C14.6279 3.71747 14.709 3.74307 14.7881 3.77655C14.8662 3.80963 14.9395 3.84924 15.0088 3.89545C15.083 3.9447 15.1523 4.0014 15.2168 4.06558C15.2812 4.12976 15.3379 4.19888 15.3867 4.27295C15.4326 4.34244 15.4727 4.41629 15.5059 4.49451C15.5391 4.57367 15.5645 4.65451 15.582 4.73706C15.6025 4.82932 15.6123 4.92371 15.6123 5.02017L15.6123 7.36224L18.9297 6.13187C19.0456 6.08896 19.1628 6.06226 19.2812 6.05176C19.3818 6.04282 19.4844 6.04559 19.5869 6.06012C19.6875 6.07431 19.7842 6.09903 19.877 6.13425C19.9795 6.17316 20.0771 6.22488 20.1699 6.28943C20.2627 6.354 20.3457 6.42758 20.418 6.51016C20.4824 6.58493 20.54 6.66711 20.5879 6.75668C20.6377 6.84811 20.6758 6.94269 20.7021 7.04034C20.7334 7.15515 20.749 7.27426 20.749 7.39764L20.749 19.6305C20.749 19.727 20.7393 19.8213 20.7197 19.9136C20.7021 19.9961 20.6768 20.077 20.6426 20.1561C20.6094 20.2344 20.5703 20.3082 20.5234 20.3777C20.4746 20.4518 20.418 20.5209 20.3535 20.5851C20.29 20.6492 20.2207 20.7059 20.1465 20.7551C20.0771 20.8014 20.0029 20.841 19.9248 20.8741C19.8457 20.9076 19.7646 20.9332 19.6826 20.9508C19.5902 20.9706 19.4958 20.9805 19.3994 20.9805L13.7598 20.9805L10.5479 20.9805L4.60059 20.9799C4.50488 20.9799 4.41016 20.97 4.31738 20.9503C4.23535 20.9326 4.1543 20.907 4.0752 20.8735C3.99707 20.8404 3.92285 20.8008 3.85352 20.7545C3.7793 20.7053 3.71094 20.6486 3.64648 20.5845C3.58203 20.5203 3.52539 20.4512 3.47656 20.3771C3.42969 20.3076 3.39062 20.2338 3.35742 20.1555C3.32422 20.0764 3.29785 19.9955 3.28027 19.913C3.26074 19.8207 3.25098 19.7263 3.25098 19.6299L3.25098 13.3701C3.25098 12.8969 3.29915 12.4339 3.39551 11.9813C3.49219 11.5286 3.6377 11.0862 3.83105 10.6541C4.02441 10.2221 4.25749 9.81921 4.53027 9.4455C4.80371 9.07178 5.11621 8.72723 5.46973 8.41183L7.02148 7.02472C7.14453 6.91446 7.28906 6.85934 7.45508 6.85938C7.62012 6.85941 7.76465 6.91455 7.8877 7.02484L8.80957 7.84857L8.80957 5.02017C8.80957 4.92368 8.81934 4.82932 8.83887 4.73706C8.85645 4.65451 8.88184 4.57367 8.91504 4.49451C8.94824 4.41629 8.98828 4.34244 9.03418 4.27295C9.08398 4.19888 9.14062 4.12976 9.2041 4.06558C9.26855 4.00143 9.33789 3.9447 9.41211 3.89545C9.48145 3.84924 9.55566 3.80963 9.63379 3.77655C9.71289 3.74307 9.79297 3.71747 9.87598 3.6998C9.96777 3.68005 10.0625 3.6702 10.1592 3.6702L11.5605 3.6702L11.5605 2.5853C11.5605 2.22131 11.8467 1.9353 12.2109 1.9353C12.5742 1.9353 12.8604 2.22131 12.8604 2.5853ZM14.3535 7.82883C14.3271 7.75659 14.3125 7.67792 14.3125 7.59518L14.2617 4.97018L10.1094 5.02017L10.1094 9.10263C10.2025 9.2141 10.292 9.32843 10.3779 9.44562C10.6507 9.81927 10.8838 10.2221 11.0771 10.654C11.2705 11.0859 11.415 11.5281 11.5117 11.9806C11.6081 12.4332 11.6562 12.896 11.6562 13.3692L11.6562 19.6801L13.1094 19.6796L13.1094 9.22952C13.1094 9.08841 13.1299 8.95358 13.1699 8.82507C13.21 8.69659 13.2705 8.5744 13.3516 8.45856C13.4316 8.34268 13.5254 8.24353 13.6318 8.16107C13.7383 8.07861 13.8574 8.01285 13.9902 7.96378L14.3535 7.82883ZM19.3818 7.35074L14.4424 9.18265L14.4092 19.6805L19.4492 19.6305L19.4326 16.6226L16.6699 16.6226C16.3057 16.6226 16.0205 16.3366 16.0205 15.9726C16.0205 15.6086 16.3057 15.3226 16.6699 15.3226L19.4258 15.3226L19.418 14.0107L16.6699 14.0107C16.3057 14.0107 16.0205 13.7248 16.0205 13.3607C16.0205 12.9968 16.3057 12.7108 16.6699 12.7108L19.4111 12.7108L19.4043 11.3989L16.6699 11.3989C16.3057 11.3989 16.0205 11.1129 16.0205 10.7489C16.0205 10.3849 16.3057 10.0989 16.6699 10.0989L19.3965 10.0989L19.3818 7.35074ZM4.55078 13.3701L4.55078 19.6299L10.3564 19.6799L10.3564 13.3692C10.3564 12.9885 10.3174 12.6161 10.2402 12.2521C10.1621 11.888 10.0459 11.5322 9.89062 11.1848C9.73503 10.8373 9.54753 10.5132 9.32812 10.2126C9.10807 9.91202 8.85612 9.63485 8.57227 9.3811L7.4541 8.38126L6.33594 9.38113C6.05176 9.63486 5.7998 9.91208 5.58008 10.2127C5.36035 10.5134 5.17285 10.8375 5.01758 11.1851C4.8623 11.5327 4.74512 11.8885 4.66797 12.2527C4.58984 12.6169 4.55078 12.9893 4.55078 13.3701ZM8.37402 12.6499L6.53418 12.6499C6.16992 12.6499 5.88379 12.3639 5.88379 11.9999C5.88379 11.6359 6.16992 11.3499 6.53418 11.3499L8.37402 11.3499C8.7373 11.3499 9.02344 11.6359 9.02344 11.9999C9.02344 12.3639 8.7373 12.6499 8.37402 12.6499ZM8.37402 15.2617L6.53418 15.2617C6.16992 15.2617 5.88379 14.9757 5.88379 14.6117C5.88379 14.2477 6.16992 13.9617 6.53418 13.9617L8.37402 13.9617C8.7373 13.9617 9.02344 14.2477 9.02344 14.6117C9.02344 14.9757 8.7373 15.2617 8.37402 15.2617ZM8.37402 17.8735L6.53418 17.8735C6.16992 17.8735 5.88379 17.5876 5.88379 17.2235C5.88379 16.8596 6.16992 16.5735 6.53418 16.5735L8.37402 16.5735C8.7373 16.5735 9.02344 16.8596 9.02344 17.2235C9.02344 17.5876 8.7373 17.8735 8.37402 17.8735Z"/></svg>

<svg xmlns="http://www.w3.org/2000/svg" fill="none" viewBox="0 0 24 24" focusable="false"><path fill="#74767B" fill-rule="evenodd" d="M12.86 2.58v1.09h1.4c.09 0 .19.01.28.02.08.02.16.05.24.08s.15.07.22.12c.08.05.15.11.21.17.07.06.12.13.17.21.05.07.09.14.12.22s.06.16.08.24c.02.09.03.19.03.29v2.34l3.31-1.23c.12-.05.24-.07.36-.08.1-.01.2-.01.3.01.1.01.2.03.29.07.1.04.2.09.29.15.1.07.18.14.25.23.07.07.13.15.17.24.05.09.09.19.12.29.03.11.04.23.04.35v12.24c0 .09-.01.19-.03.28-.01.08-.04.16-.07.24-.04.08-.07.15-.12.22-.05.08-.11.15-.17.21s-.13.12-.21.17a1 1 0 0 1-.22.12c-.08.03-.16.06-.24.08-.09.02-.19.03-.29.03h-8.85l-5.94-.01c-.1 0-.19 0-.29-.02-.08-.02-.16-.05-.24-.08a1 1 0 0 1-.22-.12c-.08-.05-.14-.11-.21-.17-.06-.06-.12-.13-.17-.21-.05-.07-.08-.14-.12-.22-.03-.08-.06-.16-.07-.24-.02-.09-.03-.19-.03-.29v-6.25a6.4 6.4 0 0 1 .58-2.72c.19-.43.42-.84.7-1.21.27-.37.58-.72.93-1.03l1.56-1.39c.12-.11.26-.17.43-.17s.31.06.43.17l.92.82V5.02c0-.1.01-.2.03-.29.02-.08.05-.16.08-.24a1 1 0 0 1 .12-.22c.05-.08.11-.15.17-.21s.13-.12.21-.17a1 1 0 0 1 .22-.12c.08-.03.16-.06.24-.08.09-.01.19-.02.28-.02h1.41V2.58c0-.36.28-.65.65-.65.36 0 .65.29.65.65m1.49 5.24a.6.6 0 0 1-.04-.23l-.05-2.62-4.16.05V9.1c.1.11.19.22.27.34.28.37.51.78.7 1.21.2.43.34.87.44 1.33.09.45.14.91.14 1.38v6.32l1.45-.01V9.22c0-.14.02-.27.06-.4.05-.13.11-.25.19-.37.08-.11.17-.21.28-.29.1-.09.22-.15.36-.2zm5.03-.47-4.94 1.83-.04 10.5 5.04-.05-.01-3.01h-2.77a.64.64 0 0 1-.64-.65c0-.37.28-.65.64-.65h2.76l-.01-1.31h-2.75a.64.64 0 0 1-.64-.65c0-.37.28-.65.64-.65h2.75l-.01-1.32h-2.74c-.36 0-.64-.28-.64-.65 0-.36.28-.65.64-.65h2.73zM4.55 13.37v6.25l5.8.05v-6.31c0-.38-.04-.75-.11-1.11-.08-.37-.2-.72-.35-1.07a5.5 5.5 0 0 0-1.32-1.8l-1.12-1-1.12 1c-.28.25-.54.53-.75.83-.22.3-.41.62-.57.97-.15.35-.27.7-.35 1.07-.08.36-.11.73-.11 1.12m3.82-.73H6.53c-.37 0-.65-.28-.65-.65 0-.36.28-.65.65-.65h1.84c.36 0 .65.29.65.65 0 .37-.29.65-.65.65m0 2.62H6.53c-.37 0-.65-.29-.65-.65 0-.37.28-.65.65-.65h1.84c.36 0 .65.28.65.65 0 .36-.29.65-.65.65m0 2.61H6.53c-.37 0-.65-.29-.65-.65 0-.37.28-.65.65-.65h1.84c.36 0 .65.28.65.65 0 .36-.29.65-.65.65"/></svg>
